categories/32/preferences-desktop-wallpaper.svg

<?xml version="1.0" encoding="UTF-8" standalone="no"?>
<svg
   xmlns:dc="http://purl.org/dc/elements/1.1/"
   xmlns:cc="http://creativecommons.org/ns#"
   xmlns:rdf="http://www.w3.org/1999/02/22-rdf-syntax-ns#"
   xmlns:svg="http://www.w3.org/2000/svg"
   xmlns="http://www.w3.org/2000/svg"
   xmlns:xlink="http://www.w3.org/1999/xlink"
   xmlns:sodipodi="http://sodipodi.sourceforge.net/DTD/sodipodi-0.dtd"
   xmlns:inkscape="http://www.inkscape.org/namespaces/inkscape"
   version="1.1"
   width="32"
   height="32"
   id="svg4354"
   viewBox="0 0 32 32"
   inkscape:version="0.91 r13725"
   sodipodi:docname="preferences-desktop-wallpaper.svg">
  <sodipodi:namedview
     pagecolor="#ffffff"
     bordercolor="#666666"
     borderopacity="1"
     objecttolerance="10"
     gridtolerance="10"
     guidetolerance="10"
     inkscape:pageopacity="0"
     inkscape:pageshadow="2"
     inkscape:window-width="1366"
     inkscape:window-height="712"
     id="namedview70"
     showgrid="false"
     inkscape:zoom="1"
     inkscape:cx="9.9095947"
     inkscape:cy="22.041138"
     inkscape:window-x="0"
     inkscape:window-y="30"
     inkscape:window-maximized="1"
     inkscape:current-layer="svg4354" />
  <defs
     id="defs4356">
    <linearGradient
       x1="19.874987"
       y1="38.245197"
       x2="19.874987"
       y2="-61.256123"
       id="linearGradient4251"
       xlink:href="#linearGradient3707-319-631-407-1-846-5-4-5-44"
       gradientUnits="userSpaceOnUse"
       gradientTransform="matrix(-0.29999995,0,0,0.29999995,34.258887,19.300002)" />
    <linearGradient
       id="linearGradient3707-319-631-407-1-846-5-4-5-44">
      <stop
         id="stop3788-4-8-9-7"
         style="stop-color:#365a7c;stop-opacity:1"
         offset="0" />
      <stop
         id="stop3790-2-1-9-6"
         style="stop-color:#5ea1ca;stop-opacity:1"
         offset="1" />
    </linearGradient>
    <linearGradient
       x1="19.874987"
       y1="38.245197"
       x2="19.874987"
       y2="-61.256123"
       id="linearGradient4253"
       xlink:href="#linearGradient3707-319-631-407-1-846-5-4-5-4"
       gradientUnits="userSpaceOnUse"
       gradientTransform="matrix(-0.29999995,0,0,0.29999995,28.258887,19.300002)" />
    <linearGradient
       id="linearGradient3707-319-631-407-1-846-5-4-5-4">
      <stop
         id="stop3788-4-8-9-8"
         style="stop-color:#365a7c;stop-opacity:1"
         offset="0" />
      <stop
         id="stop3790-2-1-9-10"
         style="stop-color:#5ea1ca;stop-opacity:1"
         offset="1" />
    </linearGradient>
    <linearGradient
       x1="19.874987"
       y1="38.245197"
       x2="19.874987"
       y2="-61.256123"
       id="linearGradient4255"
       xlink:href="#linearGradient3707-319-631-407-1-846-5-4-5-6"
       gradientUnits="userSpaceOnUse"
       gradientTransform="matrix(-0.29999995,0,0,0.29999995,22.258887,19.300002)" />
    <linearGradient
       id="linearGradient3707-319-631-407-1-846-5-4-5-6">
      <stop
         id="stop3788-4-8-9-1"
         style="stop-color:#365a7c;stop-opacity:1"
         offset="0" />
      <stop
         id="stop3790-2-1-9-1"
         style="stop-color:#5ea1ca;stop-opacity:1"
         offset="1" />
    </linearGradient>
    <linearGradient
       x1="19.874987"
       y1="38.245197"
       x2="19.874987"
       y2="-61.256123"
       id="linearGradient4257"
       xlink:href="#linearGradient3707-319-631-407-1-846-5-4-5"
       gradientUnits="userSpaceOnUse"
       gradientTransform="matrix(-0.29999995,0,0,0.29999995,16.258887,19.300002)" />
    <linearGradient
       id="linearGradient3707-319-631-407-1-846-5-4-5">
      <stop
         id="stop3788-4-8-9"
         style="stop-color:#365a7c;stop-opacity:1"
         offset="0" />
      <stop
         id="stop3790-2-1-9"
         style="stop-color:#5ea1ca;stop-opacity:1"
         offset="1" />
    </linearGradient>
    <linearGradient
       x1="23.99999"
       y1="4.999989"
       x2="23.99999"
       y2="43"
       id="linearGradient3141"
       xlink:href="#linearGradient3924"
       gradientUnits="userSpaceOnUse"
       gradientTransform="matrix(0.72972972,0,0,0.64864869,-1.5135104,0.93243894)" />
    <linearGradient
       id="linearGradient3924">
      <stop
         id="stop3926"
         style="stop-color:#ffffff;stop-opacity:1"
         offset="0" />
      <stop
         id="stop3928"
         style="stop-color:#ffffff;stop-opacity:0.23529412"
         offset="0.06316455" />
      <stop
         id="stop3930"
         style="stop-color:#ffffff;stop-opacity:0.15686275"
         offset="0.95056331" />
      <stop
         id="stop3932"
         style="stop-color:#ffffff;stop-opacity:0.39215687"
         offset="1" />
    </linearGradient>
    <radialGradient
       cx="4.5993023"
       cy="8.4497671"
       r="19.99999"
       fx="4.5993023"
       fy="8.4497671"
       id="radialGradient3166-9"
       xlink:href="#linearGradient2867-449-88-871-390-598-476-591-434-148-57-177-8"
       gradientUnits="userSpaceOnUse"
       gradientTransform="matrix(0,1.8470782,-2.1794488,-5.5888698e-8,34.415917,-9.1194552)" />
    <linearGradient
       id="linearGradient2867-449-88-871-390-598-476-591-434-148-57-177-8">
      <stop
         id="stop3750-4"
         style="stop-color:#90dbec;stop-opacity:1"
         offset="0" />
      <stop
         id="stop3752-8"
         style="stop-color:#55c1ec;stop-opacity:1"
         offset="0.26238" />
      <stop
         id="stop3754-1"
         style="stop-color:#3689e6;stop-opacity:1"
         offset="0.704952" />
      <stop
         id="stop3756-0"
         style="stop-color:#2b63a0;stop-opacity:1"
         offset="1" />
    </linearGradient>
    <radialGradient
       cx="605.71429"
       cy="486.64789"
       r="117.14286"
       fx="605.71429"
       fy="486.64789"
       id="radialGradient2910"
       xlink:href="#linearGradient5060-6-6-5"
       gradientUnits="userSpaceOnUse"
       gradientTransform="matrix(-0.04372487,0,0,0.01647059,31.794815,21.294422)" />
    <linearGradient
       id="linearGradient5060-6-6-5">
      <stop
         id="stop5062-3-0-3"
         style="stop-color:#000000;stop-opacity:1"
         offset="0" />
      <stop
         id="stop5064-1-4-9"
         style="stop-color:#000000;stop-opacity:0"
         offset="1" />
    </linearGradient>
    <radialGradient
       cx="605.71429"
       cy="486.64789"
       r="117.14286"
       fx="605.71429"
       fy="486.64789"
       id="radialGradient2913"
       xlink:href="#linearGradient5060-6-6-5"
       gradientUnits="userSpaceOnUse"
       gradientTransform="matrix(0.04372487,0,0,0.01647059,0.20519206,21.294422)" />
    <linearGradient
       id="linearGradient5048-7-7-5">
      <stop
         id="stop5050-5-6-4"
         style="stop-color:#000000;stop-opacity:0"
         offset="0" />
      <stop
         id="stop5056-9-0-1"
         style="stop-color:#000000;stop-opacity:1"
         offset="0.5" />
      <stop
         id="stop5052-6-9-5"
         style="stop-color:#000000;stop-opacity:0"
         offset="1" />
    </linearGradient>
    <linearGradient
       x1="302.85715"
       y1="366.64789"
       x2="302.85715"
       y2="609.50507"
       id="linearGradient4352"
       xlink:href="#linearGradient5048-7-7-5"
       gradientUnits="userSpaceOnUse"
       gradientTransform="matrix(0.04372487,0,0,0.01647059,0.19658512,21.294422)" />
  </defs>
  <metadata
     id="metadata4359">
    <rdf:RDF>
      <cc:Work
         rdf:about="">
        <dc:format>image/svg+xml</dc:format>
        <dc:type
           rdf:resource="http://purl.org/dc/dcmitype/StillImage" />
        <dc:title />
      </cc:Work>
    </rdf:RDF>
  </metadata>
  <rect
     style="display:inline;overflow:visible;visibility:visible;opacity:0.40206185;fill:url(#linearGradient4352);fill-opacity:1;fill-rule:nonzero;stroke:none;stroke-width:1;marker:none"
     id="rect2512-9-5"
     y="27.333334"
     x="5.4435763"
     height="4.0000005"
     width="21.11286" />
  <path
     style="display:inline;overflow:visible;visibility:visible;opacity:0.40206185;fill:url(#radialGradient2913);fill-opacity:1;fill-rule:nonzero;stroke:none;stroke-width:1;marker:none"
     id="path2514-7-4"
     d="m 26.556432,27.333467 c 0,0 0,3.999779 0,3.999779 C 28.808154,31.340773 32,30.437099 32,29.333099 c 0,-1.104 -2.512752,-1.999632 -5.443568,-1.999632 z" />
  <path
     style="display:inline;overflow:visible;visibility:visible;opacity:0.40206185;fill:url(#radialGradient2910);fill-opacity:1;fill-rule:nonzero;stroke:none;stroke-width:1;marker:none"
     id="path2516-8-9"
     d="m 5.4435678,27.333467 c 0,0 0,3.999779 0,3.999779 C 3.1918461,31.340773 0,30.437099 0,29.333099 c 0,-1.104 2.5127521,-1.999632 5.4435678,-1.999632 z" />
  <rect
     style="color:#000000;display:inline;overflow:visible;visibility:visible;fill:url(#radialGradient3166-9);fill-opacity:1;fill-rule:nonzero;stroke:none;stroke-width:1;stroke-linecap:round;stroke-linejoin:round;stroke-miterlimit:4;stroke-dasharray:none;stroke-dashoffset:0;stroke-opacity:1;marker:none;enable-background:accumulate"
     id="rect5505"
     y="3.5"
     x="1.5"
     ry="2.0799999"
     rx="2"
     height="26"
     width="29" />
  <path
     style="opacity:0.7;fill:#ffffff;fill-opacity:0.58823529;stroke:#ffffff;stroke-width:0.99999994px;stroke-linecap:butt;stroke-linejoin:miter;stroke-opacity:1"
     id="path4306"
     d="m 5.5,25.5 c -0.554,0 -1,0.446 -1,1 v 2 h 23 v -2 c 0,-0.554 -0.446,-1 -1,-1 z" />
  <path
     style="color:#000000;display:inline;overflow:visible;visibility:visible;opacity:0.3;fill:url(#linearGradient4257);fill-opacity:1;fill-rule:nonzero;stroke:none;stroke-width:1;marker:none;enable-background:accumulate"
     id="path3184"
     d="M 9.118401,22.000001 H 4.8815972 C 4.3931925,22.000001 4,22.393194 4,22.881598 v 4.236805 C 4,27.606808 4.3931925,28 4.8815972,28 H 9.118401 C 9.606807,28 10,27.606808 10,27.118403 V 22.881598 C 10,22.393194 9.606807,22.000001 9.118401,22.000001 Z" />
  <path
     style="color:#000000;display:inline;overflow:visible;visibility:visible;fill:#f7f7f7;fill-opacity:1;fill-rule:nonzero;stroke:#ffffff;stroke-width:0.98542714;stroke-linecap:butt;stroke-linejoin:miter;stroke-miterlimit:4;stroke-dashoffset:0;stroke-opacity:1;marker:none;enable-background:accumulate"
     id="path3176"
     d="M 8.206706,23.492713 H 5.7932951 c -0.1665219,0 -0.3005814,0.13406 -0.3005814,0.300581 v 2.413411 c 0,0.166522 0.1340595,0.300581 0.3005814,0.300581 H 8.206706 c 0.1665209,0 0.3005805,-0.134059 0.3005805,-0.300581 v -2.413411 c 0,-0.166521 -0.1340596,-0.300581 -0.3005805,-0.300581 z" />
  <path
     style="color:#000000;display:inline;overflow:visible;visibility:visible;opacity:0.3;fill:url(#linearGradient4255);fill-opacity:1;fill-rule:nonzero;stroke:none;stroke-width:1;marker:none;enable-background:accumulate"
     id="path3184-5"
     d="M 15.118401,22.000001 H 10.881597 C 10.393193,22.000001 10,22.393194 10,22.881598 v 4.236805 C 10,27.606808 10.393193,28 10.881597,28 h 4.236804 C 15.606807,28 16,27.606808 16,27.118403 v -4.236805 c 0,-0.488404 -0.393193,-0.881597 -0.881599,-0.881597 z" />
  <path
     style="color:#000000;display:inline;overflow:visible;visibility:visible;fill:#f7f7f7;fill-opacity:1;fill-rule:nonzero;stroke:#ffffff;stroke-width:0.98542714;stroke-linecap:butt;stroke-linejoin:miter;stroke-miterlimit:4;stroke-dashoffset:0;stroke-opacity:1;marker:none;enable-background:accumulate"
     id="path3176-9"
     d="m 14.206706,23.492713 h -2.413411 c -0.166522,0 -0.300581,0.13406 -0.300581,0.300581 v 2.413411 c 0,0.166522 0.134059,0.300581 0.300581,0.300581 h 2.413411 c 0.166521,0 0.300581,-0.134059 0.300581,-0.300581 v -2.413411 c 0,-0.166521 -0.13406,-0.300581 -0.300581,-0.300581 z" />
  <path
     style="color:#000000;display:inline;overflow:visible;visibility:visible;opacity:0.3;fill:url(#linearGradient4253);fill-opacity:1;fill-rule:nonzero;stroke:none;stroke-width:1;marker:none;enable-background:accumulate"
     id="path3184-0"
     d="M 21.118401,22.000001 H 16.881597 C 16.393193,22.000001 16,22.393194 16,22.881598 v 4.236805 C 16,27.606808 16.393193,28 16.881597,28 h 4.236804 C 21.606807,28 22,27.606808 22,27.118403 v -4.236805 c 0,-0.488404 -0.393193,-0.881597 -0.881599,-0.881597 z" />
  <path
     style="color:#000000;display:inline;overflow:visible;visibility:visible;fill:#f7f7f7;fill-opacity:1;fill-rule:nonzero;stroke:#ffffff;stroke-width:0.98542714;stroke-linecap:butt;stroke-linejoin:miter;stroke-miterlimit:4;stroke-dashoffset:0;stroke-opacity:1;marker:none;enable-background:accumulate"
     id="path3176-4"
     d="m 20.206706,23.492713 h -2.413411 c -0.166522,0 -0.300581,0.13406 -0.300581,0.300581 v 2.413411 c 0,0.166522 0.134059,0.300581 0.300581,0.300581 h 2.413411 c 0.166521,0 0.300581,-0.134059 0.300581,-0.300581 v -2.413411 c 0,-0.166521 -0.13406,-0.300581 -0.300581,-0.300581 z" />
  <path
     style="color:#000000;display:inline;overflow:visible;visibility:visible;opacity:0.3;fill:url(#linearGradient4251);fill-opacity:1;fill-rule:nonzero;stroke:none;stroke-width:1;marker:none;enable-background:accumulate"
     id="path3184-7"
     d="M 27.118401,22.000001 H 22.881597 C 22.393193,22.000001 22,22.393194 22,22.881598 v 4.236805 C 22,27.606808 22.393193,28 22.881597,28 h 4.236804 C 27.606807,28 28,27.606808 28,27.118403 v -4.236805 c 0,-0.488404 -0.393193,-0.881597 -0.881599,-0.881597 z" />
  <path
     style="color:#000000;display:inline;overflow:visible;visibility:visible;fill:#f7f7f7;fill-opacity:1;fill-rule:nonzero;stroke:#ffffff;stroke-width:0.98542714;stroke-linecap:butt;stroke-linejoin:miter;stroke-miterlimit:4;stroke-dashoffset:0;stroke-opacity:1;marker:none;enable-background:accumulate"
     id="path3176-5"
     d="m 26.206706,23.492713 h -2.413411 c -0.166522,0 -0.300581,0.13406 -0.300581,0.300581 v 2.413411 c 0,0.166522 0.134059,0.300581 0.300581,0.300581 h 2.413411 c 0.166521,0 0.300581,-0.134059 0.300581,-0.300581 v -2.413411 c 0,-0.166521 -0.13406,-0.300581 -0.300581,-0.300581 z" />
  <rect
     style="color:#000000;clip-rule:nonzero;display:inline;overflow:visible;visibility:visible;opacity:0.5;isolation:auto;mix-blend-mode:normal;color-interpolation:sRGB;color-interpolation-filters:linearRGB;solid-color:#000000;solid-opacity:1;fill:#000000;fill-opacity:0;fill-rule:nonzero;stroke:#00537d;stroke-width:1;stroke-linecap:round;stroke-linejoin:round;stroke-miterlimit:4;stroke-dasharray:none;stroke-dashoffset:0;stroke-opacity:1;marker:none;color-rendering:auto;image-rendering:auto;shape-rendering:auto;text-rendering:auto;enable-background:accumulate"
     id="rect5505-1"
     y="3.5"
     x="1.5"
     ry="2.0799999"
     rx="2"
     height="26"
     width="29" />
  <rect
     style="opacity:0.5;fill:none;stroke:url(#linearGradient3141);stroke-width:0.99999994;stroke-linecap:round;stroke-linejoin:round;stroke-miterlimit:4;stroke-dasharray:none;stroke-dashoffset:0;stroke-opacity:1"
     id="rect6741-7"
     y="4.5"
     x="2.5"
     ry="1.0434783"
     rx="1"
     height="24"
     width="26.999998" />
</svg>

<svg xmlns="http://www.w3.org/2000/svg" xmlns:xlink="http://www.w3.org/1999/xlink" viewBox="0 0 32 32"><defs><linearGradient x1="19.875" y1="38.245" x2="19.875" y2="-61.256" id="p" xlink:href="#a" gradientUnits="userSpaceOnUse" gradientTransform="matrix(-.3 0 0 .3 34.26 19.3)"/><linearGradient id="a"><stop offset="0" stop-color="#365a7c"/><stop offset="1" stop-color="#5ea1ca"/></linearGradient><linearGradient x1="19.875" y1="38.245" x2="19.875" y2="-61.256" id="o" xlink:href="#b" gradientUnits="userSpaceOnUse" gradientTransform="matrix(-.3 0 0 .3 28.26 19.3)"/><linearGradient id="b"><stop offset="0" stop-color="#365a7c"/><stop offset="1" stop-color="#5ea1ca"/></linearGradient><linearGradient x1="19.875" y1="38.245" x2="19.875" y2="-61.256" id="n" xlink:href="#c" gradientUnits="userSpaceOnUse" gradientTransform="matrix(-.3 0 0 .3 22.26 19.3)"/><linearGradient id="c"><stop offset="0" stop-color="#365a7c"/><stop offset="1" stop-color="#5ea1ca"/></linearGradient><linearGradient x1="19.875" y1="38.245" x2="19.875" y2="-61.256" id="m" xlink:href="#d" gradientUnits="userSpaceOnUse" gradientTransform="matrix(-.3 0 0 .3 16.26 19.3)"/><linearGradient id="d"><stop offset="0" stop-color="#365a7c"/><stop offset="1" stop-color="#5ea1ca"/></linearGradient><linearGradient x1="24" y1="5" x2="24" y2="43" id="q" xlink:href="#e" gradientUnits="userSpaceOnUse" gradientTransform="matrix(.72973 0 0 .64865 -1.514 .932)"/><linearGradient id="e"><stop offset="0" stop-color="#fff"/><stop offset=".063" stop-color="#fff" stop-opacity=".235"/><stop offset=".951" stop-color="#fff" stop-opacity=".157"/><stop offset="1" stop-color="#fff" stop-opacity=".392"/></linearGradient><radialGradient cx="4.599" cy="8.45" r="20" fx="4.599" fy="8.45" id="l" xlink:href="#f" gradientUnits="userSpaceOnUse" gradientTransform="matrix(0 1.84708 -2.17945 0 34.416 -9.12)"/><linearGradient id="f"><stop offset="0" stop-color="#90dbec"/><stop offset=".262" stop-color="#55c1ec"/><stop offset=".705" stop-color="#3689e6"/><stop offset="1" stop-color="#2b63a0"/></linearGradient><radialGradient cx="605.714" cy="486.648" r="117.143" fx="605.714" fy="486.648" id="k" xlink:href="#g" gradientUnits="userSpaceOnUse" gradientTransform="matrix(-.04372 0 0 .01647 31.795 21.294)"/><linearGradient id="g"><stop offset="0"/><stop offset="1" stop-opacity="0"/></linearGradient><radialGradient cx="605.714" cy="486.648" r="117.143" fx="605.714" fy="486.648" id="j" xlink:href="#g" gradientUnits="userSpaceOnUse" gradientTransform="matrix(.04372 0 0 .01647 .205 21.294)"/><linearGradient id="h"><stop offset="0" stop-opacity="0"/><stop offset=".5"/><stop offset="1" stop-opacity="0"/></linearGradient><linearGradient x1="302.857" y1="366.648" x2="302.857" y2="609.505" id="i" xlink:href="#h" gradientUnits="userSpaceOnUse" gradientTransform="matrix(.04372 0 0 .01647 .197 21.294)"/></defs><path overflow="visible" opacity=".402" fill="url(#i)" d="M5.444 27.333h21.113v4H5.444z"/><path d="M26.556 27.333v4c2.252.008 5.444-.896 5.444-2s-2.513-2-5.444-2z" overflow="visible" opacity=".402" fill="url(#j)"/><path d="M5.444 27.333v4c-2.252.008-5.444-.896-5.444-2s2.513-2 5.444-2z" overflow="visible" opacity=".402" fill="url(#k)"/><rect y="3.5" x="1.5" ry="2.08" rx="2" height="26" width="29" color="#000" overflow="visible" fill="url(#l)"/><path d="M5.5 25.5c-.554 0-1 .446-1 1v2h23v-2c0-.554-.446-1-1-1z" opacity=".7" fill="#fff" fill-opacity=".588" stroke="#fff"/><path d="M9.118 22H4.882a.88.88 0 0 0-.882.882v4.236a.88.88 0 0 0 .882.882h4.236a.88.88 0 0 0 .882-.882v-4.236A.88.88 0 0 0 9.118 22z" color="#000" overflow="visible" opacity=".3" fill="url(#m)"/><path d="M8.207 23.493H5.793a.3.3 0 0 0-.3.3v2.414a.3.3 0 0 0 .3.3h2.414a.3.3 0 0 0 .3-.3v-2.414a.3.3 0 0 0-.3-.3z" color="#000" overflow="visible" fill="#f7f7f7" stroke="#fff" stroke-width=".985"/><path d="M15.118 22h-4.236a.88.88 0 0 0-.882.882v4.236a.88.88 0 0 0 .882.882h4.236a.88.88 0 0 0 .882-.882v-4.236a.88.88 0 0 0-.882-.882z" color="#000" overflow="visible" opacity=".3" fill="url(#n)"/><path d="M14.207 23.493h-2.414a.3.3 0 0 0-.3.3v2.414a.3.3 0 0 0 .3.3h2.414a.3.3 0 0 0 .3-.3v-2.414a.3.3 0 0 0-.3-.3z" color="#000" overflow="visible" fill="#f7f7f7" stroke="#fff" stroke-width=".985"/><path d="M21.118 22h-4.236a.88.88 0 0 0-.882.882v4.236a.88.88 0 0 0 .882.882h4.236a.88.88 0 0 0 .882-.882v-4.236a.88.88 0 0 0-.882-.882z" color="#000" overflow="visible" opacity=".3" fill="url(#o)"/><path d="M20.207 23.493h-2.414a.3.3 0 0 0-.3.3v2.414a.3.3 0 0 0 .3.3h2.414a.3.3 0 0 0 .3-.3v-2.414a.3.3 0 0 0-.3-.3z" color="#000" overflow="visible" fill="#f7f7f7" stroke="#fff" stroke-width=".985"/><path d="M27.118 22h-4.236a.88.88 0 0 0-.882.882v4.236a.88.88 0 0 0 .882.882h4.236a.88.88 0 0 0 .882-.882v-4.236a.88.88 0 0 0-.882-.882z" color="#000" overflow="visible" opacity=".3" fill="url(#p)"/><path d="M26.207 23.493h-2.414a.3.3 0 0 0-.3.3v2.414a.3.3 0 0 0 .3.3h2.414a.3.3 0 0 0 .3-.3v-2.414a.3.3 0 0 0-.3-.3z" color="#000" overflow="visible" fill="#f7f7f7" stroke="#fff" stroke-width=".985"/><rect style="isolation:auto;mix-blend-mode:normal" y="3.5" x="1.5" ry="2.08" rx="2" height="26" width="29" color="#000" overflow="visible" opacity=".5" stroke="#00537d" stroke-linecap="round" stroke-linejoin="round" fill="none"/><rect y="4.5" x="2.5" ry="1.043" rx="1" height="24" width="27" opacity=".5" fill="none" stroke="url(#q)" stroke-linecap="round" stroke-linejoin="round"/></svg>
